lib/flags/ma-morocco.svg

<svg xmlns="http://www.w3.org/2000/svg" fill="none" aria-hidden="true" viewBox="0 0 42 30"><g id="Country=MA - Morocco, Size=sm (36x24)" filter="url(#filter0_dd_91_26636)"><g clip-path="url(#clip0_91_26636)"><g id="flag"><mask id="mask0_91_26636" width="36" height="24" x="3" y="2" maskUnits="userSpaceOnUse" style="mask-type:alpha"><rect id="mask" width="36" height="24" x="3" y="2" fill="white"/></mask><g mask="url(#mask0_91_26636)"><g id="contents"><path id="background" fill="#C51918" fill-rule="evenodd" d="M3 2H39V24C39 25.1046 38.1046 26 37 26H5C3.89543 26 3 25.1046 3 24V2Z" clip-rule="evenodd"/><path id="background_2" fill="#E31D1C" fill-rule="evenodd" d="M3 2H39V26H3V2Z" clip-rule="evenodd"/><g id="mark"><path id="Rectangle 43" fill="#579D20" fill-rule="evenodd" d="M28.2926 21.6262L21.187 4.70068H20.8787L14.02 21.6262L21.1428 17.8211L28.2926 21.6262ZM20.4005 10.2221L21.1622 7.58375L21.9527 10.2977L24.2237 15.9541L25.5571 18.6927L22.6785 16.89L21.1412 16.0719L19.6288 16.8799L16.817 18.6927L18.1169 15.898L20.4005 10.2221Z" clip-rule="evenodd"/><path id="Rectangle 43_2" fill="#579D20" fill-rule="evenodd" d="M17.2455 15.473L21.1785 17.7969L24.8484 15.473L31.8186 10.2363H10.1836L17.2455 15.473ZM17.3272 13.474L14.6523 12.019H17.9156H24.3998H27.2785L24.9824 13.3118L21.1614 15.8887L17.3272 13.474Z" clip-rule="evenodd"/></g></g></g></g></g></g><defs><filter id="filter0_dd_91_26636" width="42" height="30" x="0" y="0" color-interpolation-filters="sRGB" filterUnits="userSpaceOnUse"><feFlood flood-opacity="0" result="BackgroundImageFix"/><feColorMatrix in="SourceAlpha" result="hardAlpha" values="0 0 0 0 0 0 0 0 0 0 0 0 0 0 0 0 0 0 127 0"/><feOffset dy="1"/><feGaussianBlur stdDeviation="1"/><feColorMatrix values="0 0 0 0 0.0627451 0 0 0 0 0.0941176 0 0 0 0 0.156863 0 0 0 0.06 0"/><feBlend in2="BackgroundImageFix" result="effect1_dropShadow_91_26636"/><feColorMatrix in="SourceAlpha" result="hardAlpha" values="0 0 0 0 0 0 0 0 0 0 0 0 0 0 0 0 0 0 127 0"/><feOffset dy="1"/><feGaussianBlur stdDeviation="1.5"/><feColorMatrix values="0 0 0 0 0.0627451 0 0 0 0 0.0941176 0 0 0 0 0.156863 0 0 0 0.1 0"/><feBlend in2="effect1_dropShadow_91_26636" result="effect2_dropShadow_91_26636"/><feBlend in="SourceGraphic" in2="effect2_dropShadow_91_26636" result="shape"/></filter><clipPath id="clip0_91_26636"><rect width="36" height="24" x="3" y="2" fill="white" rx="2"/></clipPath></defs></svg>

<svg xmlns="http://www.w3.org/2000/svg" fill="none" aria-hidden="true" viewBox="0 0 42 30"><g filter="url(#a)"><g clip-path="url(#b)"><mask id="c" width="36" height="24" x="3" y="2" maskUnits="userSpaceOnUse" style="mask-type:alpha"><path fill="#fff" d="M3 2h36v24H3z"/></mask><g fill-rule="evenodd" clip-rule="evenodd" mask="url(#c)"><path fill="#C51918" d="M3 2h36v22a2 2 0 0 1-2 2H5a2 2 0 0 1-2-2V2Z"/><path fill="#E31D1C" d="M3 2h36v24H3V2Z"/><g fill="#579D20"><path d="M28.293 21.626 21.187 4.701h-.308L14.02 21.626l7.123-3.805 7.15 3.805ZM20.4 10.222l.761-2.638.79 2.714 2.272 5.656 1.333 2.739-2.878-1.803-1.538-.818-1.512.808-2.812 1.813 1.3-2.795 2.284-5.676Z"/><path d="m17.245 15.473 3.933 2.324 3.67-2.324 6.97-5.237H10.185l7.062 5.237Zm.082-1.999-2.675-1.455H27.28l-2.297 1.293-3.82 2.577-3.835-2.415Z"/></g></g></g></g><defs><clipPath id="b"><rect width="36" height="24" x="3" y="2" fill="#fff" rx="2"/></clipPath><filter id="a" width="42" height="30" x="0" y="0" color-interpolation-filters="sRGB" filterUnits="userSpaceOnUse"><feFlood flood-opacity="0" result="BackgroundImageFix"/><feColorMatrix in="SourceAlpha" result="hardAlpha" values="0 0 0 0 0 0 0 0 0 0 0 0 0 0 0 0 0 0 127 0"/><feOffset dy="1"/><feGaussianBlur stdDeviation="1"/><feColorMatrix values="0 0 0 0 0.0627451 0 0 0 0 0.0941176 0 0 0 0 0.156863 0 0 0 0.06 0"/><feBlend in2="BackgroundImageFix" result="effect1_dropShadow_91_26636"/><feColorMatrix in="SourceAlpha" result="hardAlpha" values="0 0 0 0 0 0 0 0 0 0 0 0 0 0 0 0 0 0 127 0"/><feOffset dy="1"/><feGaussianBlur stdDeviation="1.5"/><feColorMatrix values="0 0 0 0 0.0627451 0 0 0 0 0.0941176 0 0 0 0 0.156863 0 0 0 0.1 0"/><feBlend in2="effect1_dropShadow_91_26636" result="effect2_dropShadow_91_26636"/><feBlend in="SourceGraphic" in2="effect2_dropShadow_91_26636" result="shape"/></filter></defs></svg>
